X: 18460
T: Hurry The Jug
R: jig
M: 6/8
K: Edorian
|:D|~E3 G2A|BAF GFE|FDD ADD|F2E DB,D|
~E3 G2A|BAF G2A|(3Bcd B AGF|1 ~E3 e2:|2 ~E3 e2 z||
|:~E3 d2 z|dfe d2B|AFA d2A|BAG FED|
~E3~e3|efd e2d|Bcd ede|f2e def|
gfe fed|edc d2B|AFA d2A|BAG FED|
~E3 G2A|BAF G2A|(3Bcd B AGF|~E3 e2 z:|

